X: 1
T: The Blockheaded Dustman
M: 4/4
L: 1/8
R: hmmmm
K: D Maj
|: A/G/F/E/ |
D>FA>F A>c (3cBA | G>EB>E d>BG>B | 
A>Bc>A (3ABc e>c | d>ef>d A2 :|
|: d/e/f/g/ |
a2 (3gag f2 e>d | c2 (3BcB A3 B | 
A>B (3cBA A>ce>c | d2 (3edc d2 :|
